packages/kaspersky-hexa-ui-icons/src/iconsSVGs/8/Search.svg

<svg width="8" height="8" viewBox="0 0 8 8" fill="none" xmlns="http://www.w3.org/2000/svg">
<path fill-rule="evenodd" clip-rule="evenodd" d="M4.81426 5.75338C4.35025 6.04769 3.80032 6.21819 3.20992 6.21819C1.54364 6.21819 0.199707 4.86011 0.199707 3.19332C0.199707 1.52653 1.54364 0.168457 3.20992 0.168457C4.8762 0.168457 6.22014 1.52653 6.22014 3.19332C6.22014 3.79892 6.04272 4.36377 5.73689 4.83754L7.61092 6.7232C7.86397 6.97782 7.8627 7.38938 7.60808 7.64243C7.35345 7.89549 6.9419 7.89421 6.68884 7.63959L4.81426 5.75338ZM1.49971 3.19332C1.49971 2.23691 2.26918 1.46846 3.20992 1.46846C4.15066 1.46846 4.92014 2.23691 4.92014 3.19332C4.92014 3.65839 4.7382 4.07901 4.44309 4.38845C4.4308 4.39897 4.4188 4.41003 4.40714 4.42163C4.39581 4.43288 4.38499 4.44445 4.37467 4.4563C4.06876 4.7432 3.65884 4.91819 3.20992 4.91819C2.26918 4.91819 1.49971 4.14973 1.49971 3.19332Z" fill="black"/>
</svg>

<svg xmlns="http://www.w3.org/2000/svg" width="8" height="8" fill="none" viewBox="0 0 8 8"><path fill="#000" fill-rule="evenodd" d="M4.8145 5.7534a2.985 2.985 0 0 1-1.6043.4649C1.5439 6.2183.2 4.8602.2 3.1933.2 1.5267 1.5439.1686 3.2102.1686s3.0102 1.358 3.0102 3.0249a3.02 3.02 0 0 1-.4833 1.6442l1.874 1.8857a.65.65 0 1 1-.922.9163zM1.5 3.1934c0-.9564.7694-1.7249 1.7102-1.7249s1.7102.7685 1.7102 1.7249c0 .465-.182.8857-.477 1.1951a.66.66 0 0 0-.0685.0679 1.698 1.698 0 0 1-1.1647.4618c-.9408 0-1.7102-.7684-1.7102-1.7248"/></svg>
